X: 147105
T: MACKENZIE'S FAREWELL
Q: "Slow."
%R: air, jig
B: James Kerr "Merry Melodies" v.1 p.47 s.1 #5
Z: 2016 John Chambers <jc:trillian.mit.edu>
M: 6/8
L: 1/8
K: Amix
uA |\
A>BA uf2ud | efa fed | A>BA uf2ud | edA B2d |\
A>BA f2d | efa fed | e>fa f2e | dBA A2 :|
|: uf |\
a>Aa fed | a>Aa fed | a>Aa fed | vf2ve ue2uf |\
a>Aa fed | e>AA f2d | efa f2e | dBA A2 :|

%%sep 1 1 500
%%sep 1 1 500

